public/svg/different/check.svg

<svg width="98" height="110" viewBox="0 0 98 110" fill="none" xmlns="http://www.w3.org/2000/svg">
<path fill-rule="evenodd" clip-rule="evenodd" d="M26.3744 36.375L17 36.375V30.375L26.3744 30.375L26.3744 21.0006L32.3744 21.0006L32.3744 30.375H41.7487V36.375H32.3744L32.3744 45.7494L26.3744 45.7494L26.3744 36.375Z" fill="#F55E21"/>
<path d="M36 62C36 64.7614 32.866 67 29 67C25.134 67 22 64.7614 22 62C22 59.2386 25.134 57 29 57C32.866 57 36 59.2386 36 62Z" fill="#434343"/>
<path fill-rule="evenodd" clip-rule="evenodd" d="M33.3685 64.7218C34.449 63.95 35 62.9739 35 62C35 61.0261 34.449 60.05 33.3685 59.2782C32.2899 58.5078 30.7486 58 29 58C27.2514 58 25.7101 58.5078 24.6315 59.2782C23.551 60.05 23 61.0261 23 62C23 62.9739 23.551 63.95 24.6315 64.7218C25.7101 65.4922 27.2514 66 29 66C30.7486 66 32.2899 65.4922 33.3685 64.7218ZM29 67C32.866 67 36 64.7614 36 62C36 59.2386 32.866 57 29 57C25.134 57 22 59.2386 22 62C22 64.7614 25.134 67 29 67Z" fill="#434343"/>
<path d="M88 62C88 64.7614 85.7614 67 83 67C80.2386 67 78 64.7614 78 62C78 59.2386 80.2386 57 83 57C85.7614 57 88 59.2386 88 62Z" fill="#A4BA04"/>
<path fill-rule="evenodd" clip-rule="evenodd" d="M49.6213 4.37891L59 13.7576V32.5002C59 48.7926 45.7924 62.0002 29.5 62.0002C13.2076 62.0002 0 48.7926 0 32.5002V13.8105L8.8154 4.44413L13.1846 8.55632L6 16.19V32.5002C6 45.4789 16.5213 56.0002 29.5 56.0002C42.4787 56.0002 53 45.4789 53 32.5002V16.2429L45.3787 8.62155L49.6213 4.37891Z" fill="#434343"/>
<path d="M20 7C20 10.866 16.866 14 13 14C9.13401 14 6 10.866 6 7C6 3.13401 9.13401 0 13 0C16.866 0 20 3.13401 20 7Z" fill="#A4BA04"/>
<path d="M51 7C51 10.866 47.866 14 44 14C40.134 14 37 10.866 37 7C37 3.13401 40.134 0 44 0C47.866 0 51 3.13401 51 7Z" fill="#A4BA04"/>
<path fill-rule="evenodd" clip-rule="evenodd" d="M26.5 69.5V64H32.5V69.5C32.5 82.7548 43.2452 93.5 56.5 93.5H61.5C71.9934 93.5 80.5 84.9934 80.5 74.5H86.5C86.5 88.3071 75.3071 99.5 61.5 99.5H56.5C39.9315 99.5 26.5 86.0685 26.5 69.5Z" fill="#434343"/>
<path fill-rule="evenodd" clip-rule="evenodd" d="M83 71C87.9706 71 92 66.9706 92 62C92 57.0294 87.9706 53 83 53C78.0294 53 74 57.0294 74 62C74 66.9706 78.0294 71 83 71ZM83 77C91.2843 77 98 70.2843 98 62C98 53.7157 91.2843 47 83 47C74.7157 47 68 53.7157 68 62C68 70.2843 74.7157 77 83 77Z" fill="#F55E21"/>
<path fill-rule="evenodd" clip-rule="evenodd" d="M4.29003 56.5355C5.65128 55.591 7.52049 55.9288 8.46503 57.29C10.2015 59.7926 11.5692 61.3015 13.1447 62.396C14.7199 63.4902 16.7137 64.3157 19.9227 65.097C21.2397 65.4177 22.1781 66.5816 22.2121 67.9366L22.4321 76.7029C22.8134 91.8884 35.2331 104 50.4233 104H52.0003C53.6571 104 55.0003 105.343 55.0003 107C55.0003 108.657 53.6571 110 52.0003 110H50.4233C31.978 110 16.8969 95.293 16.434 76.8535L16.2702 70.3262C13.7318 69.5682 11.6157 68.6394 9.72158 67.3237C7.29822 65.6402 5.44926 63.4686 3.5355 60.7105C2.59096 59.3493 2.92877 57.48 4.29003 56.5355Z" fill="#434343"/>
</svg>

<svg width="98" height="110" fill="none" xmlns="http://www.w3.org/2000/svg"><path fill-rule="evenodd" clip-rule="evenodd" d="M26.374 36.375H17v-6h9.374v-9.374h6v9.374h9.375v6h-9.375v9.374h-6v-9.374z" fill="#F55E21"/><path d="M36 62c0 2.761-3.134 5-7 5s-7-2.239-7-5 3.134-5 7-5 7 2.239 7 5z" fill="#434343"/><path fill-rule="evenodd" clip-rule="evenodd" d="M33.368 64.722C34.45 63.95 35 62.974 35 62s-.551-1.95-1.632-2.722C32.29 58.508 30.748 58 29 58c-1.749 0-3.29.508-4.369 1.278C23.551 60.05 23 61.026 23 62s.551 1.95 1.631 2.722C25.712 65.492 27.252 66 29 66c1.749 0 3.29-.508 4.368-1.278zM29 67c3.866 0 7-2.239 7-5s-3.134-5-7-5-7 2.239-7 5 3.134 5 7 5z" fill="#434343"/><path d="M88 62a5 5 0 11-10 0 5 5 0 0110 0z" fill="#A4BA04"/><path fill-rule="evenodd" clip-rule="evenodd" d="M49.621 4.379L59 13.758V32.5C59 48.793 45.792 62 29.5 62S0 48.793 0 32.5V13.81l8.815-9.366 4.37 4.112L6 16.19V32.5C6 45.48 16.521 56 29.5 56S53 45.48 53 32.5V16.243l-7.621-7.621 4.242-4.243z" fill="#434343"/><path d="M20 7A7 7 0 116 7a7 7 0 0114 0zm31 0a7 7 0 11-14 0 7 7 0 0114 0z" fill="#A4BA04"/><path fill-rule="evenodd" clip-rule="evenodd" d="M26.5 69.5V64h6v5.5c0 13.255 10.745 24 24 24h5c10.493 0 19-8.507 19-19h6c0 13.807-11.193 25-25 25h-5c-16.569 0-30-13.431-30-30z" fill="#434343"/><path fill-rule="evenodd" clip-rule="evenodd" d="M83 71a9 9 0 100-18 9 9 0 000 18zm0 6c8.284 0 15-6.716 15-15 0-8.284-6.716-15-15-15-8.284 0-15 6.716-15 15 0 8.284 6.716 15 15 15z" fill="#F55E21"/><path fill-rule="evenodd" clip-rule="evenodd" d="M4.29 56.535a3 3 0 014.175.755c1.736 2.503 3.104 4.011 4.68 5.106 1.575 1.094 3.569 1.92 6.778 2.701a3 3 0 012.29 2.84l.22 8.766c.38 15.185 12.8 27.297 27.99 27.297H52a3 3 0 110 6h-1.577c-18.445 0-33.526-14.707-33.989-33.147l-.164-6.527c-2.538-.758-4.654-1.687-6.548-3.002-2.424-1.684-4.273-3.855-6.186-6.613a3 3 0 01.754-4.175z" fill="#434343"/></svg>
